src/Eleven/64/apps/libreoffice-math.svg

<?xml version="1.0" encoding="UTF-8" standalone="no"?>
<!-- Created with Inkscape (http://www.inkscape.org/) -->

<svg
   width="64"
   height="64"
   viewBox="0 0 64 64"
   version="1.1"
   id="svg1015"
   inkscape:version="1.2.1 (9c6d41e410, 2022-07-14, custom)"
   sodipodi:docname="libreoffice-math.svg"
   xmlns:inkscape="http://www.inkscape.org/namespaces/inkscape"
   xmlns:sodipodi="http://sodipodi.sourceforge.net/DTD/sodipodi-0.dtd"
   xmlns:xlink="http://www.w3.org/1999/xlink"
   xmlns="http://www.w3.org/2000/svg"
   xmlns:svg="http://www.w3.org/2000/svg">
  <sodipodi:namedview
     id="namedview1017"
     pagecolor="#ffffff"
     bordercolor="#000000"
     borderopacity="0.25"
     inkscape:showpageshadow="2"
     inkscape:pageopacity="0.0"
     inkscape:pagecheckerboard="0"
     inkscape:deskcolor="#d1d1d1"
     inkscape:document-units="px"
     showgrid="false"
     inkscape:zoom="12.8125"
     inkscape:cx="22.985366"
     inkscape:cy="32"
     inkscape:window-width="1920"
     inkscape:window-height="1029"
     inkscape:window-x="0"
     inkscape:window-y="0"
     inkscape:window-maximized="1"
     inkscape:current-layer="svg1015" />
  <defs
     id="defs1012">
    <linearGradient
       inkscape:collect="always"
       xlink:href="#linearGradient3529"
       id="linearGradient3173"
       x1="2.6458333"
       y1="1.0583334"
       x2="14.287499"
       y2="15.875"
       gradientUnits="userSpaceOnUse"
       gradientTransform="scale(3.7795275)" />
    <linearGradient
       inkscape:collect="always"
       id="linearGradient3529">
      <stop
         style="stop-color:#526587;stop-opacity:1"
         offset="0"
         id="stop3525" />
      <stop
         style="stop-color:#445471;stop-opacity:1"
         offset="1"
         id="stop3527" />
    </linearGradient>
    <linearGradient
       inkscape:collect="always"
       xlink:href="#linearGradient3723"
       id="linearGradient3725"
       x1="54"
       y1="14"
       x2="44"
       y2="4"
       gradientUnits="userSpaceOnUse" />
    <linearGradient
       inkscape:collect="always"
       id="linearGradient3723">
      <stop
         style="stop-color:#3d4c65;stop-opacity:1"
         offset="0"
         id="stop3719" />
      <stop
         style="stop-color:#455572;stop-opacity:1"
         offset="1"
         id="stop3721" />
    </linearGradient>
  </defs>
  <path
     id="rect3085"
     style="fill:url(#linearGradient3173);fill-opacity:1;stroke-width:3.99999;stroke-linecap:round;stroke-linejoin:round"
     d="m 14,4 c -2.216001,0 -4,1.784 -4,4 v 48 c 0,2.216 1.784,4 4,4 h 36 c 2.216,0 4,-1.784 4,-4 V 26 c 0.0061,-2.482935 -0.258806,-3.258806 -2.000001,-5 l -15,-15 c -1.461154,-1.384192 -2.251004,-2 -4.5,-2 z"
     sodipodi:nodetypes="ssssssccccs" />
  <path
     id="rect2140"
     style="fill:url(#linearGradient3725);fill-opacity:1;stroke-width:3.99999;stroke-linecap:round;stroke-linejoin:round"
     d="m 39.5,5.5 12.999999,13 c 0.431425,0.447189 1.497373,0.107777 1.5,-1 V 8 C 53.999999,5.784 52.216001,4 50,4 H 40.499999 C 39.467689,4.0059 39.082468,5.058252 39.5,5.5 Z"
     sodipodi:nodetypes="cccsscc" />
  <path
     id="rect1255"
     style="fill:#fafafa;fill-opacity:1;stroke-width:3.99999;stroke-linecap:round;stroke-linejoin:round"
     d="m 15,7.000467 h 16.999998 c 1.512265,-0.01788 2.506216,0.477588 3.500002,1.5 l 13.999999,14 c 0.897271,1.028352 1.5,1.758806 1.5,3.5 v 29 c 0,1.107998 -0.891999,1.999997 -2.000002,1.999997 H 15 c -1.108001,0 -2,-0.891999 -2,-1.999997 v -46 c 0,-1.108 0.891999,-2 2,-2 z"
     sodipodi:nodetypes="sccccssssss" />
  <path
     id="rect853"
     style="fill:#526587;fill-opacity:1;stroke-width:3.99999;stroke-linecap:round;stroke-linejoin:round"
     d="m 27.457031,27 c -0.01183,3.11e-4 -0.0234,0.0014 -0.03516,0.002 -0.01308,6.54e-4 -0.02608,9.62e-4 -0.03906,0.002 -0.01243,9.47e-4 -0.02475,0.0027 -0.03711,0.0039 -0.02491,0.0025 -0.04964,0.006 -0.07422,0.0098 -0.0026,4.03e-4 -0.0052,0.0015 -0.0078,0.002 -0.0091,0.0014 -0.01827,0.0023 -0.02734,0.0039 -0.01304,0.0023 -0.02615,0.0052 -0.03906,0.0078 -0.02426,0.005 -0.0484,0.0095 -0.07227,0.01563 -0.0164,0.0042 -0.03262,0.0089 -0.04883,0.01367 -0.0076,0.0022 -0.01584,0.0035 -0.02344,0.0059 -0.0097,0.003 -0.01966,0.0066 -0.0293,0.0098 -0.02324,0.0077 -0.04565,0.01658 -0.06836,0.02539 -0.01652,0.0064 -0.03258,0.01254 -0.04883,0.01953 -0.01534,0.0066 -0.02982,0.01442 -0.04492,0.02148 -0.0043,0.002 -0.0093,0.0038 -0.01367,0.0059 -0.0079,0.0038 -0.01561,0.0078 -0.02344,0.01172 -0.02052,0.01032 -0.04059,0.02003 -0.06055,0.03125 -0.0059,0.0033 -0.01172,0.0064 -0.01758,0.0098 -0.01391,0.0081 -0.0274,0.01689 -0.04102,0.02539 -0.004,0.0025 -0.0078,0.0053 -0.01172,0.0078 -0.01115,0.0071 -0.02228,0.01411 -0.0332,0.02148 -0.0072,0.0049 -0.01438,0.01064 -0.02148,0.01563 -0.01463,0.01024 -0.02876,0.02048 -0.04297,0.03125 -0.01262,0.0095 -0.02479,0.01936 -0.03711,0.0293 -0.0043,0.0035 -0.0094,0.0063 -0.01367,0.0098 -0.0068,0.0056 -0.01288,0.01191 -0.01953,0.01758 -0.0158,0.01349 -0.03167,0.02691 -0.04687,0.04102 -0.0048,0.0044 -0.009,0.0092 -0.01367,0.01367 -0.0087,0.0083 -0.01888,0.01497 -0.02734,0.02344 -0.0062,0.0062 -0.01149,0.01318 -0.01758,0.01953 -0.01281,0.01327 -0.02479,0.02729 -0.03711,0.04102 -0.01191,0.0133 -0.0237,0.02729 -0.03516,0.04102 -0.0033,0.0039 -0.0066,0.0078 -0.0098,0.01172 -0.0067,0.0082 -0.01299,0.01704 -0.01953,0.02539 -0.0068,0.0087 -0.01491,0.01655 -0.02148,0.02539 -0.0056,0.0075 -0.01015,0.0158 -0.01563,0.02344 -0.01175,0.01637 -0.02404,0.03197 -0.03516,0.04883 -0.0075,0.01145 -0.01427,0.02348 -0.02148,0.03516 -0.004,0.0065 -0.0078,0.01299 -0.01172,0.01953 -0.0058,0.0098 -0.01198,0.01939 -0.01758,0.0293 -0.0088,0.01553 -0.01711,0.03099 -0.02539,0.04688 -0.0036,0.0069 -0.0063,0.01453 -0.0098,0.02148 -0.0037,0.0074 -0.0081,0.01404 -0.01172,0.02148 -0.0048,0.01009 -0.009,0.02101 -0.01367,0.03125 -0.01013,0.02238 -0.02023,0.04541 -0.0293,0.06836 -0.01837,0.0465 -0.03511,0.0939 -0.04883,0.142578 -0.0043,0.01538 -0.0079,0.0313 -0.01172,0.04687 -0.005,0.01999 -0.0095,0.04018 -0.01367,0.06055 -0.0029,0.01425 -0.0052,0.02853 -0.0078,0.04297 -0.0023,0.01304 -0.0059,0.02589 -0.0078,0.03906 L 23.388628,43.172216 19.939409,37.197607 C 19.523908,36.47794 18.610247,36.233279 17.890581,36.648779 17.170913,37.064278 16.924299,37.97794 17.3398,38.697607 l 5.5,9.52539 c 0.4155,0.719667 1.331113,0.966281 2.050781,0.550782 0.422927,-0.244178 0.680965,-0.661529 0.738281,-1.109376 0.01949,-0.06209 0.03721,-0.125524 0.04883,-0.191406 L 28.757812,30 H 44.5 C 45.331001,30 46,29.331 46,28.5 46,27.669 45.331001,27 44.5,27 H 27.53125 c -0.01058,-2.51e-4 -0.02067,2.8e-5 -0.03125,0 -0.01451,-3.8e-5 -0.02854,-3.8e-4 -0.04297,0 z" />
  <g
     id="g2235"
     transform="matrix(2.6725295,-2.6725295,2.6725295,2.6725295,-16.508992,37.788839)">
    <rect
       style="fill:#3d4c65;fill-opacity:1;stroke-width:1.05833;stroke-linecap:round;stroke-linejoin:round"
       id="rect1831"
       width="0.79374999"
       height="3.7041667"
       x="9.036479"
       y="8.6067457"
       ry="0.39687502" />
    <rect
       style="fill:#455572;fill-opacity:1;stroke-width:1.05833;stroke-linecap:round;stroke-linejoin:round"
       id="rect2043"
       width="0.79374981"
       height="3.7041664"
       x="10.061954"
       y="-11.285437"
       ry="0.3968749"
       transform="rotate(90)" />
  </g>
</svg>

<?xml version="1.0" encoding="UTF-8" standalone="no"?>
<!-- Created with Inkscape (http://www.inkscape.org/) -->

<svg
   width="64"
   height="64"
   viewBox="0 0 64 64"
   version="1.1"
   id="svg1015"
   inkscape:version="1.3.2 (1:1.3.2+202311252150+091e20ef0f)"
   sodipodi:docname="libreoffice-math.svg"
   xmlns:inkscape="http://www.inkscape.org/namespaces/inkscape"
   xmlns:sodipodi="http://sodipodi.sourceforge.net/DTD/sodipodi-0.dtd"
   xmlns:xlink="http://www.w3.org/1999/xlink"
   xmlns="http://www.w3.org/2000/svg"
   xmlns:svg="http://www.w3.org/2000/svg">
  <sodipodi:namedview
     id="namedview1017"
     pagecolor="#ffffff"
     bordercolor="#000000"
     borderopacity="0.25"
     inkscape:showpageshadow="2"
     inkscape:pageopacity="0.0"
     inkscape:pagecheckerboard="0"
     inkscape:deskcolor="#d1d1d1"
     inkscape:document-units="px"
     showgrid="false"
     inkscape:zoom="12.671875"
     inkscape:cx="32"
     inkscape:cy="32"
     inkscape:window-width="1920"
     inkscape:window-height="1008"
     inkscape:window-x="0"
     inkscape:window-y="0"
     inkscape:window-maximized="1"
     inkscape:current-layer="svg1015" />
  <defs
     id="defs1012">
    <linearGradient
       inkscape:collect="always"
       xlink:href="#linearGradient2"
       id="linearGradient3173"
       x1="2.6458333"
       y1="1.0583334"
       x2="14.287499"
       y2="15.875"
       gradientUnits="userSpaceOnUse"
       gradientTransform="scale(3.7795275)" />
    <linearGradient
       inkscape:collect="always"
       xlink:href="#linearGradient4"
       id="linearGradient3725"
       x1="54"
       y1="14"
       x2="44"
       y2="4"
       gradientUnits="userSpaceOnUse" />
    <linearGradient
       inkscape:collect="always"
       id="linearGradient2">
      <stop
         style="stop-color:#dd6b96;stop-opacity:1;"
         offset="0"
         id="stop1" />
      <stop
         style="stop-color:#d33d7e;stop-opacity:1;"
         offset="1"
         id="stop2" />
    </linearGradient>
    <linearGradient
       inkscape:collect="always"
       id="linearGradient4">
      <stop
         style="stop-color:#c0175a;stop-opacity:1;"
         offset="0"
         id="stop3" />
      <stop
         style="stop-color:#de4b7e;stop-opacity:1;"
         offset="1"
         id="stop4" />
    </linearGradient>
  </defs>
  <path
     id="rect3085"
     style="fill:url(#linearGradient3173);fill-opacity:1;stroke-width:3.99999;stroke-linecap:round;stroke-linejoin:round"
     d="m 14,4 c -2.216001,0 -4,1.784 -4,4 v 48 c 0,2.216 1.784,4 4,4 h 36 c 2.216,0 4,-1.784 4,-4 V 26 c 0.0061,-2.482935 -0.258806,-3.258806 -2.000001,-5 l -15,-15 c -1.461154,-1.384192 -2.251004,-2 -4.5,-2 z"
     sodipodi:nodetypes="ssssssccccs" />
  <path
     id="rect2140"
     style="fill:url(#linearGradient3725);fill-opacity:1;stroke-width:3.99999;stroke-linecap:round;stroke-linejoin:round"
     d="m 39.5,5.5 12.999999,13 c 0.431425,0.447189 1.497373,0.107777 1.5,-1 V 8 C 53.999999,5.784 52.216001,4 50,4 H 40.499999 C 39.467689,4.0059 39.082468,5.058252 39.5,5.5 Z"
     sodipodi:nodetypes="cccsscc" />
  <path
     id="rect853"
     style="fill:#ffffff;fill-opacity:1;stroke-width:3.99999;stroke-linecap:round;stroke-linejoin:round"
     d="M 27.457031 27 C 27.445201 27.000311 27.433635 27.001353 27.421875 27.001953 C 27.408795 27.002607 27.395792 27.002868 27.382812 27.003906 C 27.370383 27.004853 27.358063 27.006613 27.345703 27.007812 C 27.320793 27.010312 27.296064 27.013778 27.271484 27.017578 C 27.268884 27.017981 27.266272 27.019031 27.263672 27.019531 C 27.254572 27.020931 27.245398 27.021838 27.236328 27.023438 C 27.223288 27.025737 27.210176 27.02865 27.197266 27.03125 C 27.173006 27.03625 27.14887 27.040745 27.125 27.046875 C 27.1086 27.051075 27.092382 27.055777 27.076172 27.060547 C 27.068572 27.062747 27.060334 27.064006 27.052734 27.066406 C 27.043034 27.069406 27.033077 27.072972 27.023438 27.076172 C 27.000198 27.083872 26.977788 27.092753 26.955078 27.101562 C 26.938558 27.107962 26.9225 27.114104 26.90625 27.121094 C 26.89091 27.127694 26.876428 27.135518 26.861328 27.142578 C 26.857028 27.144578 26.852026 27.146338 26.847656 27.148438 C 26.839756 27.152237 26.832049 27.156236 26.824219 27.160156 C 26.803699 27.170476 26.783632 27.180186 26.763672 27.191406 C 26.757772 27.194706 26.751954 27.197772 26.746094 27.201172 C 26.732184 27.209272 26.718698 27.218063 26.705078 27.226562 C 26.701078 27.229062 26.697279 27.231875 26.693359 27.234375 C 26.682209 27.241475 26.671076 27.248489 26.660156 27.255859 C 26.652956 27.260759 26.645772 27.266494 26.638672 27.271484 C 26.624042 27.281724 26.609913 27.291964 26.595703 27.302734 C 26.583083 27.312234 26.570914 27.322091 26.558594 27.332031 C 26.554294 27.335531 26.549192 27.338297 26.544922 27.341797 C 26.538122 27.347397 26.532041 27.353705 26.525391 27.359375 C 26.509591 27.372865 26.493716 27.386281 26.478516 27.400391 C 26.473716 27.404791 26.469514 27.409593 26.464844 27.414062 C 26.456144 27.422362 26.44596 27.42903 26.4375 27.4375 C 26.4313 27.4437 26.426012 27.450681 26.419922 27.457031 C 26.407112 27.470301 26.395132 27.484317 26.382812 27.498047 C 26.370903 27.511347 26.359116 27.525333 26.347656 27.539062 C 26.344356 27.542962 26.341091 27.546861 26.337891 27.550781 C 26.331191 27.558981 26.324899 27.567822 26.318359 27.576172 C 26.311559 27.584872 26.303445 27.592723 26.296875 27.601562 C 26.291275 27.609062 26.28673 27.61736 26.28125 27.625 C 26.2695 27.64137 26.257214 27.656968 26.246094 27.673828 C 26.238594 27.685278 26.231819 27.697304 26.224609 27.708984 C 26.220609 27.715484 26.216811 27.721976 26.212891 27.728516 C 26.207091 27.738316 26.200912 27.747903 26.195312 27.757812 C 26.186513 27.773342 26.178202 27.788798 26.169922 27.804688 C 26.166322 27.811587 26.163656 27.819222 26.160156 27.826172 C 26.156456 27.833572 26.152057 27.840216 26.148438 27.847656 C 26.143638 27.857746 26.139436 27.868666 26.134766 27.878906 C 26.124636 27.901286 26.114539 27.924316 26.105469 27.947266 C 26.087099 27.993766 26.070361 28.041166 26.056641 28.089844 C 26.052341 28.105224 26.048742 28.121149 26.044922 28.136719 C 26.039922 28.156709 26.03542 28.176896 26.03125 28.197266 C 26.02835 28.211516 26.026037 28.225794 26.023438 28.240234 C 26.021138 28.253274 26.017525 28.266127 26.015625 28.279297 L 23.388672 43.171875 L 19.939453 37.197266 C 19.523953 36.477599 18.61029 36.232938 17.890625 36.648438 C 17.170958 37.063936 16.924343 37.977599 17.339844 38.697266 L 22.839844 48.222656 C 23.255343 48.942323 24.170958 49.188936 24.890625 48.773438 C 25.313552 48.52926 25.57159 48.111909 25.628906 47.664062 C 25.648396 47.601973 25.666114 47.538538 25.677734 47.472656 L 28.757812 30 L 44.5 30 C 45.331 30 46 29.330999 46 28.5 C 46 27.669001 45.331 27 44.5 27 L 27.53125 27 C 27.52067 26.999749 27.51058 27.000028 27.5 27 C 27.48549 26.999962 27.471461 26.99962 27.457031 27 z M 32.763672 35.138672 C 32.380244 35.138672 31.996927 35.286276 31.703125 35.580078 C 31.11552 36.167683 31.115521 37.113567 31.703125 37.701172 L 34.53125 40.529297 L 31.703125 43.357422 C 31.115521 43.945026 31.115521 44.890911 31.703125 45.478516 C 32.290729 46.06612 33.236614 46.06612 33.824219 45.478516 L 36.652344 42.650391 L 39.482422 45.478516 C 40.070026 46.06612 41.015911 46.06612 41.603516 45.478516 C 42.19112 44.890911 42.19112 43.945026 41.603516 43.357422 L 38.775391 40.529297 L 41.603516 37.701172 C 42.19112 37.113567 42.19112 36.167683 41.603516 35.580078 C 41.015911 34.992474 40.070026 34.992474 39.482422 35.580078 L 36.652344 38.408203 L 33.824219 35.580078 C 33.530416 35.286276 33.147099 35.138671 32.763672 35.138672 z " />
</svg>
